X: 50
T: Denis Murphy's
B: begged borrowed and stolen
M:2/4
L:1/8
R: polka
Q: 1/4=100
K:Dmajor
V:1 
|:"D"f/g/f/e/ d>B|AD FA|"G"GE e>d|"A"cB BA|
"D" f/g/f/e/ d>B|AD FA|"G"GE "A"e>f|1"D" ed d2:|2 "D"ed dB||
 |:"D"Af f/e/f|"G"Ag g/f/g|"D"Af f/e/g|"A"e/f/e/d/ BA|
 "D"Af f/e/f|"G"Ag ga|"D"ba "A"gc|1 "D"dd B2:|2 "D"ed d2||
% abcbook-tune_id 62828a3a24162c5639c71c9d


% abcbook-boost 0
% abcbook-tablature 
% abcbook-transpose 
% abcbook-lastupdated 1652725431080
% abcbook-soundfonts 
% abcbook-repeats 3
% abc-sessionorg_id 357
% abc-sessionorg_setting 0
% abc-sessionorg_setting_id 357
% abc-boost 0

